public/images/icons/user.svg

<svg xmlns="http://www.w3.org/2000/svg" width="28" height="27" viewBox="503 375 28 27"><path fill="#999" fill-rule="evenodd" stroke="none" d="M517.1737,375 C509.8977,375 503.9997,380.898 503.9997,388.174 C503.9997,395.45 509.8977,401.348 517.1737,401.348 C524.4497,401.348 530.3477,395.45 530.3477,388.174 C530.3477,380.898 524.4497,375 517.1737,375 M517.1737,376 C523.8867,376 529.3477,381.461 529.3477,388.174 C529.3477,394.886 523.8867,400.348 517.1737,400.348 C510.4607,400.348 504.9997,394.886 504.9997,388.174 C504.9997,381.461 510.4607,376 517.1737,376"/><path fill="#999" fill-rule="evenodd" stroke="none" d="M517.1737,379.9834 C514.8597,379.9834 512.9837,381.8594 512.9837,384.1734 C512.9837,386.4884 514.8597,388.3644 517.1737,388.3644 C519.4877,388.3644 521.3637,386.4884 521.3637,384.1734 C521.3637,381.8594 519.4877,379.9834 517.1737,379.9834 M517.1737,380.9834 C518.9327,380.9834 520.3637,382.4144 520.3637,384.1734 C520.3637,385.9324 518.9327,387.3644 517.1737,387.3644 C515.4147,387.3644 513.9837,385.9324 513.9837,384.1734 C513.9837,382.4144 515.4147,380.9834 517.1737,380.9834"/><path fill="#999" fill-rule="evenodd" stroke="none" d="M508.424568,397.153247 C510.76681,393.840331 513.821352,391.4676 517.3383,391.4676 C520.844145,391.4676 523.792095,393.805307 526.000766,397.080174 C526.155171,397.309115 526.465934,397.369538 526.694874,397.215134 C526.923815,397.060729 526.984238,396.749966 526.829834,396.521026 C524.453485,392.997537 521.263123,390.4676 517.3383,390.4676 C513.409729,390.4676 510.119924,393.02308 507.608032,396.575953 C507.448616,396.801433 507.502173,397.113453 507.727653,397.272868 C507.953133,397.432284 508.265153,397.378727 508.424568,397.153247 Z"/></svg>

<svg viewBox="503 375 28 27"><path fill="#999" fill-rule="evenodd" d="M517.174 375c-7.276 0-13.174 5.898-13.174 13.174s5.898 13.174 13.174 13.174 13.174-5.898 13.174-13.174S524.45 375 517.174 375m0 1c6.713 0 12.174 5.461 12.174 12.174 0 6.712-5.461 12.174-12.174 12.174-6.713 0-12.174-5.462-12.174-12.174 0-6.713 5.46-12.174 12.174-12.174"/><path fill="#999" fill-rule="evenodd" d="M517.174 379.983a4.19 4.19 0 100 8.38 4.19 4.19 0 000-8.38m0 1a3.194 3.194 0 013.19 3.19 3.194 3.194 0 01-3.19 3.191 3.194 3.194 0 01-3.19-3.19 3.194 3.194 0 013.19-3.19m-8.75 16.17c2.343-3.314 5.397-5.686 8.914-5.686 3.506 0 6.454 2.337 8.663 5.612a.5.5 0 00.829-.559c-2.377-3.523-5.567-6.053-9.492-6.053-3.928 0-7.218 2.555-9.73 6.108a.5.5 0 10.817.577z"/></svg>
